icons-common/sound-off.svg

<svg height="1em" width="auto" viewBox="0 0 105 105" fill="currentColor" xmlns="http://www.w3.org/2000/svg">
    <path d="M50.9655 34.7229C52.6359 34.7229 54.2207 36.135 54.2207 38.0768V65.9232C54.2207 67.865 52.6788 69.2771 50.9655 69.2771C50.4087 69.2771 49.8947 69.1447 49.3379 68.8358L38.373 62.3045C37.9018 61.9956 37.3022 61.8632 36.7454 61.8632H34.047C28.7787 61.8632 24.4955 57.4501 24.4955 52.0221C24.4955 46.594 28.7787 42.1809 34.047 42.1809H36.7454C37.3022 42.1809 37.859 42.0485 38.373 41.7396L49.3379 35.2083C49.8519 34.8994 50.4087 34.767 50.9655 34.767M50.9655 27.0441C49.0809 27.0441 47.2391 27.5737 45.6115 28.5446L35.6318 34.4581H34.047C24.6669 34.4139 17 42.3133 17 51.9779C17 61.6425 24.6669 69.5419 34.047 69.5419H35.6318L45.6115 75.4554C47.2391 76.4263 49.0809 76.9559 50.9655 76.9559C56.8763 76.9559 61.7162 72.0132 61.7162 65.8791V38.0768C61.7162 31.9868 56.9191 27 50.9655 27V27.0441Z"
          />
    <path d="M88.1863 47.5652C84.0745 52.8608 79.4058 57.6711 74.266 61.9076C72.5956 63.2315 70.2398 62.8785 68.9549 61.1574C67.8841 59.7452 67.9698 57.8035 68.9549 56.4354C73.0667 51.1397 77.7354 46.3295 82.8752 42.093C86.3017 39.3569 90.8419 44.0788 88.1863 47.5652Z"
          />
    <path d="M82.875 61.9072C77.7352 57.6707 73.0665 52.8604 68.9547 47.5647C67.6697 45.8436 68.0124 43.4165 69.6828 42.0925C71.0534 40.9893 72.938 41.0775 74.2658 42.0925C79.4056 46.3291 84.0742 51.1393 88.1861 56.435C90.8416 59.9655 86.2587 64.6433 82.875 61.9072Z"
          />
</svg>

<svg xmlns="http://www.w3.org/2000/svg" width="auto" height="1em" fill="currentColor" viewBox="0 0 105 105">
    <path d="M50.966 34.723c1.67 0 3.255 1.412 3.255 3.354v27.846c0 1.942-1.542 3.354-3.255 3.354-.557 0-1.071-.132-1.628-.441l-10.965-6.532c-.471-.308-1.07-.44-1.628-.44h-2.698c-5.268 0-9.551-4.414-9.551-9.842s4.283-9.841 9.551-9.841h2.698a3.13 3.13 0 0 0 1.628-.441l10.965-6.532a3.1 3.1 0 0 1 1.627-.441m0-7.723c-1.884 0-3.726.53-5.354 1.5l-9.98 5.914h-1.584C24.667 34.414 17 42.313 17 51.978s7.667 17.564 17.047 17.564h1.585l9.98 5.913c1.627.971 3.469 1.5 5.353 1.5 5.911 0 10.751-4.942 10.751-11.076V38.077c0-6.09-4.797-11.077-10.75-11.077zm37.221 20.521a90.5 90.5 0 0 1-13.92 14.343c-1.67 1.323-4.026.97-5.311-.75-1.07-1.413-.985-3.355 0-4.723a90.5 90.5 0 0 1 13.92-14.342c3.427-2.736 7.967 1.986 5.311 5.472"/>
    <path d="M82.875 61.907a90.5 90.5 0 0 1-13.92-14.342c-1.285-1.721-.943-4.148.728-5.472 1.37-1.104 3.255-1.016 4.583 0a90.5 90.5 0 0 1 13.92 14.342c2.656 3.53-1.927 8.208-5.311 5.472"/>
</svg>
